build/img/icon/hh.svg

<svg width="44.000000" height="44.000000" viewBox="0 0 44 44" fill="none" xmlns="http://www.w3.org/2000/svg" xmlns:xlink="http://www.w3.org/1999/xlink">
	<desc>
			Created with Pixso.
	</desc>
	<defs/>
	<rect id="Social_icon" rx="22.000000" width="44.000000" height="44.000000" fill="#FCFCFC" fill-opacity="0.100000"/>
	<path id="Vector" d="M14.8838 12.8252L14.8838 19.4194C15.8041 18.2224 16.9073 17.6199 18.1867 17.6199C18.8457 17.6199 19.4358 17.7571 19.9651 18.0293C20.496 18.2998 20.8929 18.6472 21.1609 19.0688C21.4304 19.4944 21.6125 19.9604 21.711 20.4741C21.8087 20.9856 21.8576 21.781 21.8576 22.8601L21.8576 29.9106L18.9982 29.9106L18.9982 23.5605C18.9982 22.3005 18.9464 21.5024 18.8375 21.1631C18.7356 20.8308 18.5333 20.5461 18.2637 20.3555C17.9883 20.1528 17.6455 20.0525 17.2316 20.0525C16.7578 20.0525 16.3328 20.1819 15.9633 20.4387C15.5857 20.697 15.3147 21.0833 15.1429 21.5994C14.9682 22.1162 14.8809 22.8796 14.8838 23.8899L14.8809 29.9106L12.0251 29.9106L12.0251 12.8252L14.8846 12.8252L14.8838 12.8252ZM26.143 12.8252L26.143 19.4194C27.0641 18.2224 28.1665 17.6199 29.4452 17.6199C30.1019 17.6199 30.6964 17.7571 31.2266 18.0293C31.7552 18.2998 32.152 18.6472 32.4186 19.0688C32.6876 19.4917 32.8748 19.9697 32.9687 20.4741C33.0672 20.9856 33.1161 21.781 33.1161 22.8601L33.1161 29.9106L30.2596 29.9106L30.2596 23.5605C30.2596 22.3005 30.2055 21.5024 30.0967 21.1631C29.9947 20.8303 29.7918 20.5454 29.5214 20.3555C29.249 20.1528 28.9032 20.0525 28.4893 20.0525C28.0162 20.0525 27.5912 20.1819 27.221 20.4387C26.8486 20.697 26.5761 21.0833 26.4021 21.5994C26.2304 22.1162 26.143 22.8796 26.143 23.8899L26.143 29.9106L23.2873 29.9106L23.2873 12.8252L26.143 12.8252Z" fill="#FCFCFC" fill-opacity="1.000000" fill-rule="nonzero"/>
</svg>

<svg width="44" height="44" viewBox="0 0 44 44" fill="none" xmlns="http://www.w3.org/2000/svg"><rect id="Social_icon" rx="22" width="44" height="44" fill="#FCFCFC" fill-opacity=".1"/><path id="Vector" d="M14.884 12.825v6.594c.92-1.197 2.023-1.8 3.303-1.8.659 0 1.249.138 1.778.41.531.27.928.618 1.196 1.04.27.425.451.891.55 1.405.098.512.147 1.307.147 2.386v7.05h-2.86v-6.35c0-1.26-.052-2.058-.16-2.397a1.536 1.536 0 00-.574-.808c-.276-.202-.619-.303-1.032-.303-.474 0-.9.13-1.269.387-.377.258-.648.644-.82 1.16-.175.517-.262 1.28-.26 2.29l-.002 6.022h-2.856V12.825h2.86-.001zm11.259 0v6.594c.921-1.197 2.023-1.8 3.302-1.8.657 0 1.251.138 1.782.41.528.27.925.618 1.192 1.04.269.423.456.9.55 1.405.098.512.147 1.307.147 2.386v7.05H30.26v-6.35c0-1.26-.055-2.058-.163-2.397a1.53 1.53 0 00-.576-.808c-.272-.202-.618-.303-1.032-.303-.473 0-.898.13-1.268.387-.372.258-.645.644-.819 1.16-.172.517-.259 1.28-.259 2.29v6.022h-2.856V12.825h2.856z" fill="#FCFCFC" fill-opacity="1" fill-rule="nonzero"/></svg>
